icons/svg/functional-icons/volcano_active_big.svg

<?xml version="1.0" encoding="UTF-8" standalone="no"?>
<svg
   xmlns:dc="http://purl.org/dc/elements/1.1/"
   xmlns:cc="http://creativecommons.org/ns#"
   xmlns:rdf="http://www.w3.org/1999/02/22-rdf-syntax-ns#"
   xmlns:svg="http://www.w3.org/2000/svg"
   xmlns="http://www.w3.org/2000/svg"
   xmlns:sodipodi="http://sodipodi.sourceforge.net/DTD/sodipodi-0.dtd"
   xmlns:inkscape="http://www.inkscape.org/namespaces/inkscape"
   width="580"
   height="580"
   id="svg2"
   version="1.1"
   inkscape:version="0.48.4 r9939"
   sodipodi:docname="volcano_active_big.svg">
  <defs
     id="defs13" />
  <sodipodi:namedview
     pagecolor="#ffffff"
     bordercolor="#666666"
     borderopacity="1"
     objecttolerance="10"
     gridtolerance="10"
     guidetolerance="10"
     inkscape:pageopacity="0"
     inkscape:pageshadow="2"
     inkscape:window-width="1920"
     inkscape:window-height="1004"
     id="namedview11"
     showgrid="false"
     inkscape:zoom="0.8137931"
     inkscape:cx="550.09389"
     inkscape:cy="392.80857"
     inkscape:window-x="1680"
     inkscape:window-y="0"
     inkscape:window-maximized="1"
     inkscape:current-layer="svg2" />
  <metadata
     id="metadata2975">image/svg+xmlen<rdf:RDF>
  <cc:Work
     rdf:about="">
    <dc:format>image/svg+xml</dc:format>
    <dc:type
       rdf:resource="http://purl.org/dc/dcmitype/StillImage" />
    <dc:title />
  </cc:Work>
</rdf:RDF>
</metadata>
  <g
     id="g5-0"
     transform="matrix(1.9933921,0,0,1.9933921,-288.08336,-311.77116)"
     style="fill:#fefefe;fill-opacity:0.69411767;stroke:none">
    <title
       id="title7-6">Layer 1</title>
    <g
       id="g1327-7"
       style="fill:#fefefe;fill-opacity:0.69411767;stroke:none" />
  </g>
  <g
     id="g5"
     transform="matrix(1.4432588,0,0,1.4432588,-148.31166,-48.753507)"
     style="fill:#d40000;fill-opacity:1;stroke:none">
    <title
       id="title7">Layer 1</title>
    <g
       id="g1327"
       style="fill:#d40000;fill-opacity:1;stroke:none" />
    <path
       d="m 144.97279,415.42847 144.95983,-251.07776 145.09393,251.30069 -290.05376,-0.22299 -1e-5,0 0,0 1e-5,6e-5 z"
       id="path4355"
       inkscape:connector-curvature="0"
       style="fill:#d40000;fill-opacity:1;fill-rule:evenodd;stroke:none" />
  </g>
  <path
     inkscape:connector-curvature="0"
     d="m 444.48237,51.14652 c -14.8652,-8.258445 -43.21272,-23.73817 -64.68468,-23.73817 -37.98884,0 -60.37308,19.945157 -71.93489,38.113736 -62.76419,-4.955067 -53.88301,109.931224 -53.88301,109.931224 12.06138,-76.876159 59.56666,-80.348292 59.56666,-73.35587 0,0 17.65001,-30.815536 52.33547,-39.073981 34.68547,-8.258445 74.94053,19.69538 74.94053,19.69538 0,0 41.29223,-34.685469 110.66318,-23.123647 0,0 -47.54245,-41.482452 -107.00326,-8.448672 z"
     id="path5"
     sodipodi:nodetypes="cscccsccc"
     style="stroke:none;fill:#d40000;fill-opacity:1;color:#000000;fill-rule:evenodd;marker:none;visibility:visible;display:inline;overflow:visible;enable-background:accumulate" />
  <path
     inkscape:connector-curvature="0"
     d="m 405.40719,127.85742 c 69.37093,39.64052 142.77506,-18.71155 142.77506,-18.71155 0,0 -50.52996,104.05642 -141.37286,52.85406 -31.38209,-16.51689 -95.12553,3.84099 -118.24917,25.31294 21.47195,-36.33716 87.11656,-77.62405 116.84697,-59.45545 z"
     id="path9"
     sodipodi:nodetypes="ccccc"
     style="stroke:none;fill:#d40000;fill-opacity:1;color:#000000;fill-rule:evenodd;marker:none;visibility:visible;display:inline;overflow:visible;enable-background:accumulate" />
</svg>

<svg width="580" height="580" viewBox="0 0 580 580" fill="none" xmlns="http://www.w3.org/2000/svg">
<path fill-rule="evenodd" clip-rule="evenodd" d="M60.9214 550.817L270.136 188.447L479.544 551.139L60.9214 550.817H60.9214L60.9214 550.817V550.817Z" fill="#D40000"/>
<path fill-rule="evenodd" clip-rule="evenodd" d="M444.483 51.1464C429.617 42.8879 401.27 27.4082 379.798 27.4082C341.809 27.4082 319.425 47.3534 307.863 65.5219C245.099 60.5669 253.98 175.453 253.98 175.453C266.041 98.577 313.547 95.1049 313.547 102.097C313.547 102.097 331.197 71.2818 365.882 63.0233C400.568 54.7649 440.823 82.7187 440.823 82.7187C440.823 82.7187 482.115 48.0332 551.486 59.595C551.486 59.595 503.943 18.1126 444.483 51.1464V51.1464Z" fill="#D40000"/>
<path fill-rule="evenodd" clip-rule="evenodd" d="M405.407 127.857C474.778 167.498 548.182 109.146 548.182 109.146C548.182 109.146 497.652 213.202 406.809 162C375.427 145.483 311.684 165.841 288.56 187.313C310.032 150.975 375.677 109.688 405.407 127.857V127.857Z" fill="#D40000"/>
</svg>
